src/assets/filled/AudioSquare.svg

<svg width="24" height="24" viewBox="0 0 24 24"  xmlns="http://www.w3.org/2000/svg">
<path d="M9.67009 13.9199C8.93009 13.9199 8.34009 14.5199 8.34009 15.2599C8.34009 15.9999 8.94009 16.5899 9.67009 16.5899C10.4101 16.5899 11.0101 15.9899 11.0101 15.2599C11.0101 14.5199 10.4101 13.9199 9.67009 13.9199Z" />
<path d="M16.19 2H7.81C4.17 2 2 4.17 2 7.81V16.18C2 19.83 4.17 22 7.81 22H16.18C19.82 22 21.99 19.83 21.99 16.19V7.81C22 4.17 19.83 2 16.19 2ZM17.12 9.8C17.12 10.41 16.86 10.95 16.42 11.27C16.14 11.47 15.8 11.58 15.44 11.58C15.23 11.58 15.02 11.54 14.8 11.47L12.51 10.71C12.5 10.71 12.48 10.7 12.47 10.69V15.25C12.47 16.79 11.21 18.05 9.67 18.05C8.13 18.05 6.87 16.79 6.87 15.25C6.87 13.71 8.13 12.45 9.67 12.45C10.16 12.45 10.61 12.59 11.01 12.8V8.63V8.02C11.01 7.41 11.27 6.87 11.71 6.55C12.16 6.23 12.75 6.15 13.33 6.35L15.62 7.11C16.48 7.4 17.13 8.3 17.13 9.2V9.8H17.12Z" />
</svg>

<?xml version="1.0" encoding="UTF-8"?>
<svg width="24" height="24" viewBox="0 0 24 24" xmlns="http://www.w3.org/2000/svg">
 <path d="m9.6701 13.92c-0.74 0-1.33 0.6-1.33 1.34s0.6 1.33 1.33 1.33c0.74001 0 1.34-0.6 1.34-1.33 0-0.74-0.6-1.34-1.34-1.34z"/>
 <path d="m16.19 2h-8.38c-3.64 0-5.81 2.17-5.81 5.81v8.37c0 3.65 2.17 5.82 5.81 5.82h8.37c3.64 0 5.81-2.17 5.81-5.81v-8.38c0.01-3.64-2.16-5.81-5.8-5.81zm0.93 7.8c0 0.61-0.26 1.15-0.7 1.47-0.28 0.2-0.62 0.31-0.98 0.31-0.21 0-0.42-0.04-0.64-0.11l-2.29-0.76c-0.01 0-0.03-0.01-0.04-0.02v4.56c0 1.54-1.26 2.8-2.8 2.8s-2.8-1.26-2.8-2.8 1.26-2.8 2.8-2.8c0.49 0 0.94 0.14 1.34 0.35v-4.78c0-0.61 0.26-1.15 0.7-1.47 0.45-0.32 1.04-0.4 1.62-0.2l2.29 0.76c0.86 0.29 1.51 1.19 1.51 2.09v0.6h-0.01z"/>
</svg>
